public/Icons/linkedin-in.svg

<svg width="50" height="50" viewBox="0 0 50 50" fill="none" xmlns="http://www.w3.org/2000/svg">
<path d="M12.918 43.75H3.84766V14.541H12.918V43.75ZM8.37793 10.5566C5.47754 10.5566 3.125 8.1543 3.125 5.25391C3.125 3.86074 3.67843 2.52464 4.66355 1.53952C5.64866 0.554409 6.98477 0.000976562 8.37793 0.000976562C9.77109 0.000976562 11.1072 0.554409 12.0923 1.53952C13.0774 2.52464 13.6309 3.86074 13.6309 5.25391C13.6309 8.1543 11.2773 10.5566 8.37793 10.5566ZM46.8652 43.75H37.8145V29.5312C37.8145 26.1426 37.7461 21.7969 33.0986 21.7969C28.3828 21.7969 27.6602 25.4785 27.6602 29.2871V43.75H18.5996V14.541H27.2988V18.5254H27.4258C28.6367 16.2305 31.5947 13.8086 36.0078 13.8086C45.1875 13.8086 46.875 19.8535 46.875 27.7051V43.75H46.8652Z" fill="white"/>
</svg>

<?xml version="1.0" encoding="UTF-8"?>
<svg xmlns="http://www.w3.org/2000/svg" version="1.1" viewBox="0 0 50 50">
  <defs>
    <style>
      .cls-1 {
        fill: #ffc43d;
      }
    </style>
  </defs>
  <!-- Generator: Adobe Illustrator 28.6.0, SVG Export Plug-In . SVG Version: 1.2.0 Build 709)  -->
  <g>
    <g id="Layer_1">
      <path class="cls-1" d="M12.9,43.8H3.8V14.5h9.1v29.2ZM8.4,10.6c-2.9,0-5.3-2.4-5.3-5.3s.6-2.7,1.5-3.7C5.6.6,7,0,8.4,0s2.7.6,3.7,1.5c1,1,1.5,2.3,1.5,3.7,0,2.9-2.4,5.3-5.3,5.3ZM46.9,43.8h-9.1v-14.2c0-3.4,0-7.7-4.7-7.7s-5.4,3.7-5.4,7.5v14.5h-9.1V14.5h8.7v4h.1c1.2-2.3,4.2-4.7,8.6-4.7,9.2,0,10.9,6,10.9,13.9v16h0Z"/>
    </g>
  </g>
</svg>
